!!!COM: Music21
!!!OTL: jig_Naughty-Noochie
!!!OMV: jig_Naughty-Noochie
**kern
*clefG2
*k[f#]
*G:
*M6/8
=1
8dd
=
4gg
8dd
8ddL
8b
8ddJ
=
4gg
8dd
8ddL
8b
8ddJ
=
8bL
8cc
8ddJ
8ccL
8b
8aJ
=
8b
4g
4g
8dd
=
4gg
8dd
8ddL
8b
8ddJ
=
8ggL
8aa
8bbJ
4aa
8gg
=
4ff#
8aa
8ggL
8ff#
8eeJ
!!linebreak:original
=
8ff#
4dd
8ddL
8cc#X
8ddJ
=
4ee
8ee
4dd
8dd
=
8ccL
8dd
8ccJ
4b
8b
=
8ccL
8b
8aJ
8bL
8a
8gJ
=
4a
8f#
4d
8dd
=
4gg
8dd
8ddL
8b
8ddJ
=
8ccL
8dd
8eeJ
4dd
8dd
!!linebreak:original
=
8ggL
8ff#
8ggJ
8aaL
8gg
8aaJ
=
8bb
4gg
4gg
8b
=||
4ee
8ee
4dd
8dd
=
8ccL
8dd
8ccJ
4b
8b
=
8bL
8cc
8bJ
8aL
8g
8f#J
=
4.e
4e
8b
=
4ee
8ee
4dd
8dd
=
8ccL
8dd
8ccJ
4b
8b
!!linebreak:original
=
8bL
8cc
8bJ
8aL
8g
8aJ
=
4b
8b
8bL
8a
8bJ
=
8ccL
8dd
8ccJ
4b
8b
=
8ccL
8dd
8ccJ
4b
8b
=
8ccL
8b
8aJ
8bL
8a
8gJ
=
4a
8f#
4d
8b
=
4ee
8ee
4dd
8dd
!!linebreak:original
=
8ccL
8dd
8ccJ
4b
8b
=
8bL
8cc
8bJ
8aL
8g
8f#J
=
4.e
4.d
=||
*-
